images/roofs-steep/steep.svg

<svg width="120" height="120" viewBox="0 0 120 120" fill="none" xmlns="http://www.w3.org/2000/svg">
<path d="M60 14.78L18.48 63.3V111.35H101.52V63.3L60 14.78Z" fill="#F5F5F5"/>
<path d="M10.85 70.53L59.95 14.43L109.15 70.63L105.16 75.01L59.95 22.8L14.74 75.01L10.85 70.53Z" fill="white"/>
<path d="M9.90002 65.71L59.95 8.75L110.1 65.81L105.56 69.38L59.95 17.28L14.34 69.38L9.90002 65.71Z" fill="#BBCAE8"/>
<path d="M9.90002 65.71L59.95 8.75L110.1 65.81" stroke="#1B4EB2" stroke-width="1.5" stroke-linecap="round" stroke-linejoin="round"/>
<path d="M10.85 111.35H109.15" stroke="#E0E0E0" stroke-width="2" stroke-linecap="round"/>
<path d="M77.81 77.42H94.57V96.79H77.81V77.42Z" fill="#E0E0E0"/>
<path d="M86.19 77.42V96.79M94.57 87.1H77.81" stroke="#F5F5F5" stroke-width="3" stroke-linecap="square"/>
<path d="M59.28 38.6H60.75C61.8522 38.6 62.9435 38.8174 63.9615 39.2398C64.9795 39.6622 65.9042 40.2812 66.6827 41.0615C67.4611 41.8418 68.0779 42.768 68.4979 43.787C68.9178 44.806 69.1326 45.8978 69.13 47V60.22H50.9V47C50.8974 45.8978 51.1122 44.806 51.5322 43.787C51.9521 42.768 52.569 41.8418 53.3474 41.0615C54.1258 40.2812 55.0505 39.6622 56.0685 39.2398C57.0865 38.8174 58.1779 38.6 59.28 38.6Z" fill="#E0E0E0"/>
<path d="M60.02 36.28V61.58M68.69 49.41H50.46" stroke="#F5F5F5" stroke-width="3" stroke-linecap="square"/>
<path d="M25.4301 77.42H42.1901V96.79H25.4301V77.42Z" fill="#E0E0E0"/>
<path d="M33.8101 77.42V96.79M42.1901 87.1H25.4301" stroke="#F5F5F5" stroke-width="3" stroke-linecap="square"/>
<path d="M60 70C65.523 70 70 74.477 70 80V111.31H50V80C50 74.477 54.477 70 60 70Z" fill="#E0E0E0"/>
</svg>

<svg height="120" width="120" xmlns="http://www.w3.org/2000/svg"><g fill="none" fill-rule="evenodd"><g fill-rule="nonzero"><path d="m60 14.78-41.52 48.52v48.05h83.04v-48.05z" fill="#f6f6f6"/><path d="m10.85 70.53 49.1-56.1 49.2 56.2-3.99 4.38-45.21-52.21-45.21 52.21z" fill="#fff"/><path d="m9.9 65.71 50.05-56.96 50.15 57.06-4.54 3.57-45.61-52.1-45.61 52.1z" fill="#c5e2e6"/></g><path d="m9.9 65.71 50.05-56.96 50.15 57.06" stroke="#6eb7c2" stroke-linecap="round" stroke-linejoin="round" stroke-width="1.5"/><path d="m10.85 111.35h98.3" stroke="#dcdcdc" stroke-linecap="round" stroke-width="2"/><path d="m77.81 77.42h16.76v19.37h-16.76z" fill="#dcdcdc" fill-rule="nonzero"/><path d="m86.19 77.42v19.37m8.38-9.69h-16.76" stroke="#f6f6f6" stroke-linecap="square" stroke-width="3"/><path d="m59.28 38.6h1.47a8.38 8.38 0 0 1 8.38 8.4v13.22h-18.23v-13.22a8.38 8.38 0 0 1 8.38-8.4z" fill="#dcdcdc" fill-rule="nonzero"/><path d="m60.02 36.28v25.3m8.67-12.17h-18.23" stroke="#f6f6f6" stroke-linecap="square" stroke-width="3"/><path d="m25.43 77.42h16.76v19.37h-16.76z" fill="#dcdcdc" fill-rule="nonzero"/><path d="m33.81 77.42v19.37m8.38-9.69h-16.76" stroke="#f6f6f6" stroke-linecap="square" stroke-width="3"/><path d="m60 70c5.523 0 10 4.477 10 10v31.31h-20v-31.31c0-5.523 4.477-10 10-10z" fill="#dcdcdc" fill-rule="nonzero"/></g></svg>
